!!!COM: Scarlatti, Domenico
!!!CDT: 1685-1757
!!!OTL: Sonata in G major, L.343, K.434
!!!SCT: K. 434
!!!SCT: L. 343
!!!OMD: Andante ([quarter]=132)
**kern	**kern	**dynam
*staff2	*staff1	*staff1/2
*Icemba	*Icemba	*
*I"L.343 (K.434)	*I"L.343 (K.434)	*
*>[A,A,B,B]	*>[A,A,B,B]	*>[A,A,B,B]
*>norep[A,B]	*>norep[A,B]	*>norep[A,B]
*>A	*>A	*>A
*clefF4	*clefG2	*
*k[b-]	*k[b-]	*
*d:	*d:	*
*M3/4	*M3/4	*
*MM132	*MM132	*
=1-	=1-	=1-
2.r	(2.dd	p <
=2	=2	=2
2.r	2.aa	[
=3	=3	=3
2.r	8ggL	.
.	8ee	.
.	8ff	.
.	8cc#	.
.	8dd	.
.	8aJ	.
=4	=4	=4
2.r	8b-L	.
.	8f	.
.	8g	.
.	8e	.
.	8f	.
.	8gJ	.
=5	=5	=5
(2.A	8aL<	.
.	8ee	.
.	8a	.
.	8g	.
.	8f	.
.	8eJ	.
!!LO:LB:g=z
=6	=6	=6
2.d	8fL	.
.	8dd	.
.	8a	.
.	8bn	.
.	8cc	.
.	8ddJ	.
=7	=7	=7
8cL	4ee')	.
8A	.	.
8B-	(4.dd	.
8G	.	.
8A	.	.
8EJ	8cc#	.
=8	=8	=8
8FL<	8ddL	<
8C#	8eeJ	.
8D	4.ff	.
8AAJ	.	.
4BB-	.	.
.	[8gg	[[
=9	=9	=9
4AA	8ggL]	.
.	8aa	.
8AL	8dd	.
8GJ	8cc#	.
4F	8dd	.
.	8ffJ	.
!!LO:LB:g=z
=10	=10	=10
4G	8eeL	.
.	8b- 8gg	.
4A	8a 8ff	.
.	8g 8ee	.
4AA)	8f 8dd	.
.	8e 8cc#J	.
=11	=11	=11
8r	4d\ 4dd\)	.
(8DL	.	.
8C#	4r	.
8D	.	.
8B-	4r	.
8AJ	.	.
=12	=12	=12
8GL	8r	.
8F	(8ddL	<
8E	8cc#	.
8D	8dd	[
8C#	8bb-	.
8DJ	8aaJ	.
=13	=13	=13
!	!	!LO:HP:t=poco %s
4AA)	8ggL	<
.	8ff	.
4A	8ee	.
.	8dd	.
(8aL	8cc#	.
8gJ	8bnJ	.
!!LO:LB:g=z
=14	=14	=14
8fL	8aL)	.
8e	(8gg	.
8d	8ff	.
8cn	8ee	.
8Bn	8dd	.
8AJ	8ccJ	.
=15	=15	=15
8GL	8bnL)	.
8F	(8aa	.
8E	8gg	.
8D	8ff	.
8C	8ee	.
8BBnJ)	8ddJ	.
=16	=16	=16
8r	4cc 4ee)	mf
!	!	!LO:DY:a=2
(8CL	.	p
8BBn	4r	.
8C	.	.
8A	4r	.
8GJ	.	.
=17	=17	=17
8FL	8r	.
8E	(8ccL	<
8D	8bn	.
8C	8cc	.
8BBn	8aa	[
8AAJ	8ggJ	.
!!LO:LB:g=z
=18	=18	=18
4GG)	8ffL	.
.	8ee	.
4G	8dd	.
.	8cc	.
(8gL	8bn	.
8fJ	8aJ	.
=19	=19	=19
8eL	8gL	>
8d	8f	.
8c	8e	.
8Bn	8d	.
8A	8c	.
8G#J	8BnJ	]]
=20	=20	=20
*^	*^	*
[2A	(4.A	4rdd	(8cL)	.
.	.	.	8dJ	.
.	.	4rdd	4.e	.
.	8Gn	.	.	.
8AL]	4F	([4a^	.	.
8BnJ)	.	.	8d	.
=21	=21	=21	=21	=21
8EL	4E	4.a]	4e)	.
8c	.	.	.	<
8D	4D	.	4ryy	.
8Bn	.	8g#	.	.
8C	4C	[>4a	4ryy	.
8AJ	.	.	.	.
*	*	*v	*v	*
!!LO:LB:g=z
=22	=22	=22	=22
8BBnL	4BBn	8aL]	.
8G#	.	8bnJ	.
8AA	4AA	4.cc	.
8F	.	.	.
8GG#	4GG#	.	.
8DJ	.	[8dd	.
*v	*v	*	*
=23	=23	=23
4EE	8ddL]	mf
.	8ee	.
8EL	8a	.
8DJ	8g#	.
4C	8a	.
.	8ccJ	.
=24	=24	=24
4D	8bnL	.
.	8dd	.
4E	8cc	>
.	8b	.
4EE)	8a	.
.	8g#J	.
=25	=25	=25
8r	4a)	]
(8AL	.	p
8G#	4r	.
8A	.	.
8f	4r	.
8eJ	.	.
!!LO:LB:g=z
=26	=26	=26
8dL	8r	<
8c	(8aL<	.
8Bn	8g#	.
8A	8a	.
8G#	8bn	.
8AJ	8ccJ)	[[
=27	=27	=27
.	(8ddq/	.
8EL)	(8ccL)	>
(8A	8bnJ)	]
8G#	4r	.
8Bn	.	.
8f	4r	.
8eJ	.	.
=28	=28	=28
8dL	8r	.
8c	(8ddL	.
8Bn	8g#	.
8A	8a	.
8G#	8bn	.
8AJ	8ccJ	.
=29	=29	=29
8EL)	4bn)	<
(8e	.	.
8f	8r	.
8e	(8eeL	.
8d	8ff	.
8cJ	8eeJ	.
!!LO:LB:g=z
=30	=30	=30
*	*^	*
8BnL	8ddL	4.dd	.
8A	8aaJ	.	.
8G#	[2bbn)	.	f
8F#	.	(8ddL	.
8G#	.	8ee	.
8EJ	.	8ddJ	.
=31	=31	=31	=31
4.A	8bbL]	[2.cc	.
.	(8ccc	.	.
.	(8bbnq/	.	.
.	8aa)	.	.
8BnL	8gg#	.	.
8c	8aa	.	.
8AJ	8eeJ	.	.
=32	=32	=32	=32
4d	4ff	8ccL]	.
.	.	8dd	.
4e	8eeL	8cc	.
.	8dd	8bn	>
4E)	8cc	8a	.
.	8bJ	8g#J	]
=33	=33	=33	=33
8r	4a)	4a)	.
(8AL	.	.	p
8G#	4r	4r	.
8A	.	.	.
8f	4r	4r	.
8eJ	.	.	.
*	*v	*v	*
!!LO:LB:g=z
=34	=34	=34
8dL	8r	.
8c	(8aL<	<
8Bn	8g#	.
8A	8a	.
8G#	8bn	.
8AJ	8ccJ)	[
=35	=35	=35
.	(8ddq/	.
8EL)	8ccL)	>
(8A	8bnJ	]]
8G#	4r	.
8Bn	.	.
8f	4r	.
8eJ	.	.
=36	=36	=36
8dL	8r	.
8c	(8ddL	.
8Bn	8g#	.
8A	8a	.
8G#	8bn	.
8AJ	8ccJ	.
=37	=37	=37
8EL)	4bn)	<
(8e	.	.
8f	8r	.
8e	(8eeL	.
8d	8ff	.
8cJ	8eeJ	.
!!LO:LB:g=z
=38	=38	=38
*	*^	*
8BnL	8ddL	4.dd	.
8A	8aaJ	.	.
8G#	[2bbn)	.	f
8F#	.	(8ddL	.
8G#	.	8ee	.
8EJ	.	8ddJ	.
=39	=39	=39	=39
4.A	8bbL]	[2.cc	.
.	(8ccc	.	.
.	(8bbnq/	.	.
.	8aa)	.	.
8Bn	8gg#	.	.
4c	8aa	.	.
.	8eeJ	.	.
=40	=40	=40	=40
4d	4ff	8ccL]	.
.	.	8dd	.
4e	8eeL	8cc	>
.	8dd	8bn	.
4E	8cc	8a	.
.	8bJ)	8g#J)	]
=41	=41	=41	=41
4.A)	8r	8r	.
.	(>[8ee/	8ryy	f
.	4ccc	2ee_	.
(8aL	.	.	.
8gn	[4bb-	.	.
8eJ	.	.	.
!!LO:LB:g=z
=42	=42	=42	=42
4.f	8bb-L]	4.ee]	.
.	8gg#J	.	.
.	4.aa	.	.
8dL	.	(8ddL	.
8e	.	8cc	.
8EJ	8gg#	8bnJ	.
=43	=43	=43	=43
4.A)	8aaL)	8ccL)	.
.	(8bbnJ	(8ddJ	p
.	4ccc	[2ee	.
(8aL	.	.	.
8gn	[4bb	.	.
8eJ	.	.	.
=44	=44	=44	=44
4.f	8bbL]	4.ee]	.
.	8gg#J	.	.
.	4.aa	.	.
8dL	.	8ddL	.
8e	.	8cc	.
8EJ	8gg#)+	8bnJ)	.
=45	=45	=45	=45
4.A)	([2.ee	(8ccL	p
.	.	8bn	.
.	.	8a	.
(8BnL	.	8gn	.
8c	.	8f	.
8AJ	.	8eJ	.
!!LO:LB:g=z
=46	=46	=46	=46
4D	8eeL]	4f)	<
.	8dd	.	.
4E	8e 8cc	4ryy	.
.	8d 8bn	.	.
4EE)	8c 8a	4ryy	.
.	8Bn 8g#J)	.	.
=47	=47	=47	=47
(4.A	([2.ee	(8ccL	.
.	.	8bn	.
.	.	8a	.
8BnL	.	8gn	.
8c	.	8f	.
8AJ	.	8eJ	.
=48	=48	=48	=48
4D	8eeL]	4f)	.
.	8dd	.	.
4E	8e 8cc	4ryy	.
.	8d 8bn	.	.
4EE	8c 8a	4ryy	.
.	8Bn 8g#J)	.	.
*	*v	*v	*
=49	=49	=49
.	(4g#qq	.
2.AA)	2.A 2.a)	f
!!LO:LB:g=z
=50:|!|:	=50:|!|:	=50:|!|:
*>B	*>B	*>B
*	*^	*
2.r	(4.cc	(8ccL	mf
.	.	8c	.
.	.	8d	.
.	4b-X	8eJ	.
.	.	4f	.
.	8a	.	.
=51	=51	=51	=51
*^	*	*	*
(4.c	(8cL	4g)	4e)	.
.	8C	.	.	.
.	8D	4r	4r	.
4B-	8EJ	.	.	.
.	4F	4r	4r	.
[8A	.	.	.	.
*	*	*v	*v	*
=52	=52	=52	=52
4A]	2.C	8r	.
.	.	(>8gL	p
4G	.	8e	.
.	.	8f#	.
[4c)	.	8g	.
.	.	8aJ	.
=53	=53	=53	=53
8cL]	2.D)	8f#L	<
(8c	.	8a	.
8B-	.	8g	.
8A	.	8f#	.
8B-	.	8g	.
8cJ	.	8aJ	.
*v	*v	*	*
!!LO:LB:g=z
=54	=54	=54
*	*^	*
4D 4A)	&(4.dd	8ddL)	mf
.	.	8d	.
4r	.	8e	.
.	8cc	8f#J	.
4r	4b-	4g	.
=55	=55	=55	=55
*^	*	*	*
(4.d	(8dL	4a&)	4f#	.
.	8D	.	.	.
.	8E	4r	4r	.
4c	8F#J	.	.	.
.	4G	4r	4r	.
[8B-	.	.	.	.
*	*	*v	*v	*
=56	=56	=56	=56
4B-]	2.D	8r	.
.	.	(8aL	p
4A	.	8f#	.
.	.	8g#	.
[4d)	.	8a	.
.	.	8bnJ	.
=57	=57	=57	=57
8dL]	2.E)	8g#L	<
(8d	.	8bn	.
8c	.	8a	.
8Bn	.	8g#	.
8c	.	8a	.
8dJ	.	8bJ	.
*v	*v	*	*
!!LO:LB:g=z
=58	=58	=58
*	*^	*
4E 4Bn)	&(4.ee	(8eeL)	mf
.	.	8e	.
4r	.	8f#	.
.	4dd	8g#J	.
4r	.	4a	.
.	8cc	.	.
=59	=59	=59	=59
*^	*	*	*
(4.e	(8eL	4bn&)	4g#)	.
.	8E	.	.	.
.	8F#	4r	4r	.
4d	8G#J	.	.	.
.	4A	4r	4r	.
[8c	.	.	.	.
*	*	*v	*v	*
=60	=60	=60	=60
4c]	2.E)	8r	.
.	.	(8bnL	p
4Bn	.	8g#	<
.	.	8a	.
8eL	.	8b	.
8dJ	.	8g#J	.
*v	*v	*	*
=61	=61	=61
4c	8aL	.
.	8ee	.
4Bn	8dd	.
.	8bnJ	.
8AL)	4cc	.
(8aJ	.	.
!!LO:LB:g=z
=62	=62	=62
*	*^	*
8gL	4ryy	4bn	.
8eJ	.	.	.
4f	8rccc	4.a)	.
.	(8aa	.	f
4e	8ggL	.	.
.	8eeJ	(8cc#	.
=63	=63	=63	=63
4d	4ff)	8ddL	.
.	.	8f	.
4cn	(4ee	8g	.
.	.	8a	.
4B-X	4dd	8b-X	.
.	.	8dJ	.
=64	=64	=64	=64
4A	4cc	8eL	>
.	.	8f#	.
8GL	4.b-	8g	.
8E	.	8c#J	.
8F	.	4d)	.
8DJ	8a	.	.
*	*v	*v	*
=65	=65	=65
8EL	8gL	.
8C#	8e	.
8D	8f	.
8GGJ	8e 8g	.
4AA)	8d 8f	.
.	8c# 8eJ	.
*clefG2	*	*
!!LO:LB:g=z
=66	=66	=66
8r	8d)	p
(8dL	8r	.
8c#	4r	.
8d	.	.
8b-	4r	.
8aJ	.	.
=67	=67	=67
8gL	8r	.
8f	(8ddL	<
8e	8cc#	.
8d	8dd	.
8c#	8ee	.
8dJ	8ffJ)	[
=68	=68	=68
.	(8ggq/	.
8AL)	()8ffL	>
(8d	8eeJ)	.
8c#	4r	]
8e	.	.
8b-	4r	.
8aJ	.	.
=69	=69	=69
8gL	8r	<
8f	(8ggL	.
8e	8cc#	.
8d	8dd	.
8c#	8ee	.
8dJ	8ffJ)	.
!!LO:LB:g=z
=70	=70	=70
.	(8ffq/	.
8AL)	[2.ee)	[
(<8A 8a	.	<
8B- 8b-	.	.
8A 8a	.	.
8G 8g	.	.
8F 8fJ	.	.
*clefF4	*	*
=71	=71	=71
8E 8eL	4ee]	.
8D 8d	.	.
.	(8ffq/	.
8C# 8c#	[2ee)	.
8BB- 8B-	.	.
8AA 8A	.	.
8GG 8GJ	.	.
=72	=72	=72
8FF 8FL	4ee]	.
8EE 8E	.	.
.	(8ggq/	.
8DD 8D	[2ff)	.
8CC 8C	.	.
8BBB- 8BB-	.	.
8AAA 8AAJ	.	.
=73	=73	=73
4GGG) 4GG	8ffL]	f
.	8b- (8gg	.
2AAA 2AA	8a 8ff	.
.	8g 8ee	.
.	8f 8dd	.
.	8e 8cc#J)	.
*clefG2	*	*
!!LO:LB:g=z
=74	=74	=74
.	(8ffq/	.
8r	([2.ee)	f
(<8A 8aL	.	p
8B- 8b-	.	<
8A 8a	.	.
8G 8g	.	.
8F 8fJ	.	.
*clefF4	*	*
=75	=75	=75
8E 8eL	8eeL]	.
8D 8d	8ggJ)	.
.	(8ffq	.
8C# 8c#	()[2ee	.
8BB- 8B-	.	.
8AA 8A	.	.
8GG 8GJ	.	.
=76	=76	=76
8FF 8FL	8eeL]	.
8EE 8E	8aaJ)	.
.	(8ggq	.
8DD 8D	[2ff)	.
8CC 8C	.	.
8BBB- 8BB-	.	.
8AAA 8AAJ	.	.
=77	=77	=77
4GGG) 4GG	8ffL]	f
.	8b- (8gg	.
2AAA 2AA	8a 8ff	.
.	8g 8ee	.
.	8f 8dd	.
.	8e 8cc#J)	.
!!LO:LB:g=z
=78	=78	=78
*	*^	*
(4.D	8r	8r	.
.	(8a	[8a	.
.	4ff	2a_	.
8dL	.	.	.
8cn	[4ee	.	.
8AJ	.	.	.
=79	=79	=79	=79
4.B-	8eeL]	4.a]	.
.	8cc#J	.	.
.	4.dd	.	.
8GL	.	(8gL	.
8A	.	8f	.
8AAJ	8cc#	8eJ	.
=80	=80	=80	=80
4.D)	8ddL)	8fL)	.
.	(8eeJ	(8gJ	p
.	4ff	[2a)	.
(8dL	.	.	.
8cn	[4ee	.	.
8AJ	.	.	.
=81	=81	=81	=81
4.B-	8eeL]	4.a]	.
.	8cc#J	.	.
.	4.dd	.	.
8GL	.	(8gL	.
8A	.	8f	.
8AAJ)	8cc#	8eJ	.
*	*v	*v	*
!!LO:LB:g=z
=82	=82	=82
4.D (4.d	8f) 8ddL)	<
.	8g (8eeJ	.
.	4.a 4.ff)	.
8Cn 8cnL	.	.
8BB- 8B-	.	.
8AA 8AJ	8a (8ff#	.
=83	=83	=83
4.GG 4.G	8b- 8ggL	.
.	8cc 8aaJ	.
.	4.dd 4.bb-)	.
8FF 8F	.	.
4EE 4E	.	.
.	8ee (8ccc#	.
=84	=84	=84
4.DD 4.D)	8ff 8dddL	f
.	8ee 8ccc#J	.
.	[2ff [2ddd)	.
(8CnL	.	.
8BB-	.	.
8AAJ	.	.
=85	=85	=85
4GG	8ff] 8dddL]	.
.	8gg (8bb-	>
2AA)	8ff 8aa	.
.	8ee 8gg	.
.	8dd 8ff	.
.	8cc# 8eeJ	.
!!LO:LB:g=z
=86	=86	=86
4.D (4.d	8f 8ddL)	]
.	8g (8eeJ	<
.	4.a 4.ff)	.
8Cn 8cnL	.	.
8BB- 8B-	.	.
8AA 8AJ	8a (8ff#	.
=87	=87	=87
4.GG\ 4.G\	8b- 8ggL	.
.	8cc 8aaJ	.
.	4.dd 4.bb-)	.
8FF 8F	.	.
4EE 4E	.	.
.	8ee (8ccc#	.
=88	=88	=88
4.DD 4.D)	8ff 8dddL	f
.	8ee 8ccc#J	.
.	[2ff [2ddd)	.
(<8CnL	.	.
8BB-	.	.
8AAJ	.	.
=89	=89	=89
4GG	8ff] 8dddL]	.
.	8gg (8bb-	>
2AA	8ff 8aa	.
.	8ee 8gg	.
.	8dd 8ff	.
.	8cc# 8eeJ	]
!!LO:LB:g=z
=90	=90	=90
*	*^	*
4.D)	8ffL	(8aL	mf
.	8eeJ	8g	.
.	4.dd)	8f	.
(8EL	.	8eJ	.
8F	.	[4d)	.
8DJ	([8ccn	.	.
*	*v	*v	*
=91	=91	=91
8GL	8d] 8ccL]	.
8EJ	8g 8b-	>
4A	8f 8a	.
.	8e 8g	.
4AA	8d 8f	.
.	8c# 8eJ)	]
=92	=92	=92
*	*^	*
4.D)	(8ffL	(8aL	p
.	8eeJ	8g	.
.	4.dd)	8f	.
(8EL	.	8eJ	.
8F	.	[4d)	.
8DJ	([8ccn	.	.
*	*v	*v	*
=93	=93	=93
8GL	8d] 8ccL]	.
!	!LO:TX:b:i:t=rall.	!
8EJ	8g 8b-	.
4A	8f 8a	.
.	8e 8g	.
4AA	8d 8f	.
.	8c# 8eJ	.
=94	=94	=94
2.DD 2.D)	2.d)	.
==:|!	==:|!	==:|!
*-	*-	*-
!!!RDF**kern: > = above
!!!RDF**kern: < = below
!!!RDF**kern: + = marked note, optional, color=silver
!!!verovio: beamFrenchStyle 1
!!!URL-vhv: https://verovio.humdrum.org/?file=scarlatti/sonatas/L343K434.krn
!!!URL-pdf: https://github.com/craigsapp/scarlatti-keyboard-sonatas/blob/master/reference-edition/L343K434.pdf
!!!PTL: Domenico Scarlatti: Opere complete per clavicembalo
!!!PED: Longo, Alessandro
!!!PPR: Ricordi
!!!PPP: Milan
!!!PDT: 1906-1913
!!!YEC: 2021 Craig Stuart Sapp
!!!YEM: Licence: (CC BY-NC-SA 4.0) https://creativecommons.org/licenses/by-nc-sa/4.0
!!!ENC: Craig Stuart Sapp
!!!END: 2004/10/31
!!!EED: Craig Stuart Sapp
!!!EEV: 2020/12/18
